X: 6
T: Miss McLeod's Reel
I: RJ R-23 A reel
I: aka May Day
M: C|
R: reel
K: A
cB |\
"A"A2a2 fefa | c2cB cdcB | A2ag fefa | "E"B2BA BdcB |
"A"A2a2 fefa | cdcB cde2 | "D"fgfe "A"cefg | afec "E"Bd :|
cB |\
"A"ABcd ecAB | c2cB cdcB | ABcd ecAc | "E"BcBA BdcB |
"A"ABcd ecAB | cdcB cde2 | "D"fgfe "A"cefg | afec "E"BdcB |]
cB |\
"A"A2cA EAcA | c2cB cdcB | A2cA eAcA | "E"BcBA BdcB |
"A"A2cA EAcA | cdcB cde2 | "D"fgfe "A"cefg | afec "E"BdcB |] "A - go out on" HA2 |]
% text 05/28/99
